static/img/icons/graph.svg

<svg fill="none" height="26" viewBox="0 0 26 26" width="26" xmlns="http://www.w3.org/2000/svg"><g stroke="#fff" stroke-width="1.5"><g stroke-linecap="round"><path d="m19.6 1c1.7552.19429 2.9366.63338 3.8184 1.62575 1.5816 1.77994 1.5816 4.6447 1.5816 10.37425 0 5.7296 0 8.5943-1.5816 10.3743-.8818.9924-2.0632 1.4314-3.8184 1.6257m-13.19999 0c-1.75516-.1943-2.93659-.6333-3.81838-1.6257-1.58163-1.78-1.58163-4.6447-1.58163-10.3743 0-5.72955 0-8.59431 1.58163-10.37425.88179-.99237 2.06322-1.43146 3.81838-1.62575" stroke-linejoin="round"/><path d="m13 18v3.3333" stroke-linejoin="round"/><path d="m11.3333 18-4.16664 3.3333" stroke-linejoin="round"/><path d="m14.6667 18 4.1666 3.3333" stroke-linejoin="round"/></g><path d="m5.08334 13c0 2.357 0 3.5355.73224 4.2678.73223.7322 1.91074.7322 4.26772.7322h5.8334c2.357 0 3.5355 0 4.2677-.7322.7323-.7323.7323-1.9108.7323-4.2678v-3.33331c0-2.35703 0-3.53554-.7323-4.26777-.7322-.73223-1.9107-.73223-4.2677-.73223h-5.8334c-2.35698 0-3.53549 0-4.26772.73223-.73224.73223-.73224 1.91074-.73224 4.26777z"/><path d="m9.66666 13.8333v-2.5m3.33334 2.5v-4.99999m3.3333 4.99999v-1.6667" stroke-linecap="round"/></g></svg>

<svg width="26" height="26" viewBox="0 0 26 26" fill="none" xmlns="http://www.w3.org/2000/svg">
<path d="M19.6 1C21.3552 1.19429 22.5366 1.63338 23.4184 2.62575C25 4.40569 25 7.27045 25 13C25 18.7296 25 21.5943 23.4184 23.3743C22.5366 24.3667 21.3552 24.8057 19.6 25M6.40001 25C4.64485 24.8057 3.46342 24.3667 2.58163 23.3743C1 21.5943 1 18.7296 1 13C1 7.27045 1 4.40569 2.58163 2.62575C3.46342 1.63338 4.64485 1.19429 6.40001 1" stroke="white" stroke-width="1.5" stroke-linecap="round" stroke-linejoin="round"/>
<path d="M13 18V21.3333" stroke="white" stroke-width="1.5" stroke-linecap="round" stroke-linejoin="round"/>
<path d="M11.3333 18L7.16666 21.3333" stroke="white" stroke-width="1.5" stroke-linecap="round" stroke-linejoin="round"/>
<path d="M14.6667 18L18.8333 21.3333" stroke="white" stroke-width="1.5" stroke-linecap="round" stroke-linejoin="round"/>
<path d="M5.08334 13C5.08334 15.357 5.08334 16.5355 5.81558 17.2678C6.54781 18 7.72632 18 10.0833 18H15.9167C18.2737 18 19.4522 18 20.1844 17.2678C20.9167 16.5355 20.9167 15.357 20.9167 13V9.66669C20.9167 7.30966 20.9167 6.13115 20.1844 5.39892C19.4522 4.66669 18.2737 4.66669 15.9167 4.66669H10.0833C7.72632 4.66669 6.54781 4.66669 5.81558 5.39892C5.08334 6.13115 5.08334 7.30966 5.08334 9.66669V13Z" stroke="white" stroke-width="1.5"/>
<path d="M9.66666 13.8333V11.3333M13 13.8333V8.83331M16.3333 13.8333V12.1666" stroke="white" stroke-width="1.5" stroke-linecap="round"/>
</svg>
